svgs/duotone/calendar-arrow-down.svg

<svg xmlns="http://www.w3.org/2000/svg" viewBox="0 0 448 512"><!-- Font Awesome Pro 6.0.0-alpha2 by @fontawesome - https://fontawesome.com License - https://fontawesome.com/license (Commercial License) --><defs><style>.fa-secondary{opacity:.4}</style></defs><path d="M0 464C0 490.5 21.5 512 48 512H400C426.5 512 448 490.5 448 464V192H0V464ZM320.969 360.969L240.969 440.969C231.594 450.344 216.406 450.344 207.031 440.969L127.031 360.969C117.656 351.594 117.656 336.406 127.031 327.031C131.719 322.344 137.844 320 144 320S156.281 322.344 160.969 327.031L200 366.062V264C200 250.75 210.75 240 224 240S248 250.75 248 264V366.062L287.031 327.031C296.406 317.656 311.594 317.656 320.969 327.031S330.344 351.594 320.969 360.969Z" class="fa-secondary"/><path d="M400 64H352V32C352 14.4 337.6 0 320 0H320C302.4 0 288 14.4 288 32V64H160V32C160 14.4 145.6 0 128 0H128C110.4 0 96 14.4 96 32V64H48C21.49 64 0 85.49 0 112V192H448V112C448 85.49 426.51 64 400 64ZM287.031 327.031L248 366.062V264C248 250.75 237.25 240 224 240S200 250.75 200 264V366.062L160.969 327.031C156.281 322.344 150.156 320 144 320S131.719 322.344 127.031 327.031C117.656 336.406 117.656 351.594 127.031 360.969L207.031 440.969C216.406 450.344 231.594 450.344 240.969 440.969L320.969 360.969C330.344 351.594 330.344 336.406 320.969 327.031S296.406 317.656 287.031 327.031Z" class="fa-primary"/></svg>

<svg xmlns="http://www.w3.org/2000/svg" viewBox="0 0 448 512"><!--! Font Awesome Pro 6.4.0 by @fontawesome - https://fontawesome.com License - https://fontawesome.com/license (Commercial License) Copyright 2023 Fonticons, Inc. --><defs><style>.fa-secondary{opacity:.4}</style></defs><path class="fa-primary" d="M128 0C110.3 0 96 14.3 96 32V64H48C21.5 64 0 85.5 0 112v80H448V112c0-26.5-21.5-48-48-48H352V32c0-17.7-14.3-32-32-32s-32 14.3-32 32V64H160V32c0-17.7-14.3-32-32-32zM248 264c0-13.3-10.7-24-24-24s-24 10.7-24 24V366.1l-39-39c-9.4-9.4-24.6-9.4-33.9 0s-9.4 24.6 0 33.9l80 80c9.4 9.4 24.6 9.4 33.9 0l80-80c9.4-9.4 9.4-24.6 0-33.9s-24.6-9.4-33.9 0l-39 39V264z"/><path class="fa-secondary" d="M448 192H0V464c0 26.5 21.5 48 48 48H400c26.5 0 48-21.5 48-48V192zM248 264V366.1l39-39c9.4-9.4 24.6-9.4 33.9 0s9.4 24.6 0 33.9l-80 80c-9.4 9.4-24.6 9.4-33.9 0l-80-80c-9.4-9.4-9.4-24.6 0-33.9s24.6-9.4 33.9 0l39 39V264c0-13.3 10.7-24 24-24s24 10.7 24 24z"/></svg>
